web/themes/quartiers_solidaires/assets/icons/phone.svg

<?xml version="1.0" encoding="UTF-8"?>
<svg width="50px" height="50px" viewBox="0 0 50 50" version="1.1" xmlns="http://www.w3.org/2000/svg" xmlns:xlink="http://www.w3.org/1999/xlink">
    <defs>
        <polygon id="path-1" points="43 0.00015 43 42.9914 0.0005 42.9914 0.0005 0.00015 43 0.00015"></polygon>
    </defs>
    <g id="Page-1" stroke="none" stroke-width="1" fill="none" fill-rule="evenodd">
        <g id="phone" transform="translate(3.000000, 3.000000)">
            <mask id="mask-2" fill="white">
                <use xlink:href="#path-1"></use>
            </mask>
            <g id="Clip-2"></g>
            <path d="M13.5225,15.3444 C13.5225,14.5384 13.8365,13.7804 14.4065,13.2094 L15.2585,12.3584 C15.3185,12.2984 15.3975,12.2684 15.4755,12.2684 C15.5545,12.2684 15.6335,12.2984 15.6935,12.3584 L19.5365,16.2004 C19.6565,16.3214 19.6565,16.5164 19.5365,16.6364 L18.6845,17.4884 C18.3185,17.8544 18.1675,18.3834 18.2845,18.8874 C18.9275,21.6574 21.1325,23.8634 23.9025,24.5064 C24.4095,24.6264 24.9365,24.4714 25.3025,24.1064 L26.1535,23.2544 C26.2735,23.1344 26.4685,23.1334 26.5895,23.2534 L30.4325,27.0974 C30.5525,27.2174 30.5525,27.4114 30.4325,27.5324 L29.5805,28.3844 C29.0105,28.9534 28.2515,29.2684 27.4455,29.2684 C23.0215,29.2684 13.5225,19.7694 13.5225,15.3444 M41.3095,13.1234 C40.2275,10.5634 38.6765,8.2644 36.7025,6.2894 C34.7285,4.3154 32.4285,2.7644 29.8695,1.6824 C24.5685,-0.5606 18.4325,-0.5606 13.1305,1.6824 C10.5705,2.7654 8.2725,4.3154 6.2975,6.2894 C4.3225,8.2634 2.7725,10.5634 1.6895,13.1234 C0.5685,15.7754 0.0005,18.5904 0.0005,21.4914 C0.0005,24.3944 0.5685,27.2094 1.6895,29.8614 C2.7735,32.4224 4.3235,34.7224 6.2975,36.6954 C8.2725,38.6694 10.5705,40.2194 13.1305,41.3024 C15.7825,42.4234 18.5985,42.9914 21.5005,42.9914 C24.1795,42.9914 26.6985,41.9484 28.5945,40.0534 C30.1675,38.4814 31.0335,36.3894 31.0335,34.1654 C31.0335,33.2724 30.8605,32.4044 30.5315,31.5824 C30.5265,31.5694 30.5225,31.5574 30.5175,31.5434 C30.5055,31.5154 30.4975,31.4854 30.4855,31.4564 C30.4835,31.4514 30.4805,31.4484 30.4785,31.4444 C30.9185,31.1864 31.3315,30.8754 31.7025,30.5054 L32.5545,29.6534 C33.8425,28.3644 33.8425,26.2654 32.5535,24.9764 L28.7105,21.1314 C27.4205,19.8444 25.3225,19.8434 24.0325,21.1324 L23.8285,21.3364 C22.7675,20.8794 21.9105,20.0234 21.4535,18.9614 L21.6585,18.7574 C22.9465,17.4674 22.9465,15.3694 21.6575,14.0794 L17.8145,10.2374 C16.5255,8.9484 14.4265,8.9484 13.1375,10.2374 L12.2845,11.0894 C11.1485,12.2264 10.5225,13.7384 10.5225,15.3444 C10.5225,21.4094 20.9155,31.9004 27.1275,32.2514 C27.3885,32.3384 27.6055,32.5064 27.7575,32.7364 C27.9345,33.1924 28.0335,33.6704 28.0335,34.1654 C28.0335,35.5884 27.4795,36.9264 26.4735,37.9324 C25.1445,39.2604 23.3785,39.9914 21.5005,39.9914 C19.0015,39.9914 16.5795,39.5024 14.2985,38.5384 C12.0975,37.6084 10.1185,36.2744 8.4185,34.5734 C6.7195,32.8744 5.3855,30.8964 4.4525,28.6934 C3.4885,26.4124 3.0005,23.9904 3.0005,21.4914 C3.0005,18.9934 3.4885,16.5724 4.4525,14.2914 C5.3845,12.0884 6.7185,10.1104 8.4185,8.4104 C10.1185,6.7104 12.0975,5.3764 14.2995,4.4464 C18.8575,2.5164 24.1425,2.5164 28.7005,4.4464 C30.9025,5.3764 32.8815,6.7104 34.5815,8.4104 C36.2815,10.1114 37.6155,12.0894 38.5465,14.2914 C39.5115,16.5724 40.0005,18.9934 40.0005,21.4914 C40.0005,23.9904 39.5115,26.4124 38.5465,28.6934 C38.2245,29.4554 38.5815,30.3354 39.3435,30.6584 C40.1075,30.9794 40.9865,30.6234 41.3095,29.8614 C42.4315,27.2104 43.0005,24.3944 43.0005,21.4914 C43.0005,18.5904 42.4315,15.7744 41.3095,13.1234" id="Fill-1" fill="currentColor" mask="url(#mask-2)"></path>
        </g>
    </g>
</svg>

<svg viewBox="0 0 50 50" xmlns="http://www.w3.org/2000/svg" xmlns:xlink="http://www.w3.org/1999/xlink">
  <defs>
    <path id="a" d="M43 0v42.991H0V.001h43z"/>
  </defs>
  <g transform="translate(3 3)" fill="none" fill-rule="evenodd">
    <mask id="b" fill="#fff">
      <use xlink:href="#a"/>
    </mask>
    <path d="M13.523 15.344c0-.806.313-1.564.883-2.135l.852-.85a.307.307 0 0 1 .436 0l3.842 3.841c.12.121.12.316 0 .436l-.852.852a1.5 1.5 0 0 0-.4 1.4 7.56 7.56 0 0 0 5.619 5.618 1.494 1.494 0 0 0 1.4-.4l.85-.852a.309.309 0 0 1 .437 0l3.843 3.843c.12.12.12.314 0 .435l-.852.852a3.005 3.005 0 0 1-2.136.884c-4.424 0-13.922-9.499-13.922-13.924m27.787-2.22a21.428 21.428 0 0 0-4.608-6.835 21.424 21.424 0 0 0-6.832-4.607c-5.302-2.243-11.438-2.243-16.74 0A21.44 21.44 0 0 0 6.298 6.29 21.42 21.42 0 0 0 .002 21.491a21.43 21.43 0 0 0 6.297 15.204A21.44 21.44 0 0 0 21.5 42.991a9.97 9.97 0 0 0 7.093-2.938 8.27 8.27 0 0 0 2.44-5.888c0-.893-.174-1.76-.502-2.583l-.015-.039c-.011-.028-.02-.058-.032-.087l-.006-.012c.44-.258.852-.569 1.224-.939l.851-.852a3.313 3.313 0 0 0 0-4.677l-3.844-3.845a3.315 3.315 0 0 0-4.678.001l-.204.204a4.559 4.559 0 0 1-2.375-2.375l.206-.204a3.314 3.314 0 0 0-.002-4.678l-3.843-3.842a3.312 3.312 0 0 0-4.677 0l-.853.852a5.983 5.983 0 0 0-1.761 4.255c0 6.065 10.393 16.556 16.605 16.907.26.087.477.255.63.485.177.456.276.934.276 1.43a5.293 5.293 0 0 1-1.56 3.766 6.99 6.99 0 0 1-4.974 2.06c-2.498 0-4.92-.49-7.201-1.454a18.408 18.408 0 0 1-5.88-3.965 18.46 18.46 0 0 1-3.967-5.88 18.395 18.395 0 0 1-1.451-7.202c0-2.498.488-4.919 1.451-7.2a18.442 18.442 0 0 1 3.966-5.88c1.7-1.7 3.68-3.035 5.882-3.965 4.558-1.93 9.842-1.93 14.4 0a18.415 18.415 0 0 1 5.881 3.964 18.445 18.445 0 0 1 5.42 13.081c0 2.5-.49 4.921-1.454 7.202a1.5 1.5 0 0 0 2.763 1.168 21.356 21.356 0 0 0 1.69-8.37c0-2.9-.569-5.717-1.69-8.368" fill="currentColor" mask="url(#b)"/>
  </g>
</svg>
